X: 10
%
U:~=!turn!
T: As, a Thòiseach
T: Be off, Macintosh!
C:Captain Fraser
O:Scotland
B:Keith Norman MacDonald : "The Skye collection of the best reels & strathspeys extant" : 1887
Z:Ralph Palmer
R:Reel
M:C|
L:1/8
K:D mixolydian
^c | {/^c}dEBE {/c}dEB^c | {/^c}dEBE {/G}FDD^c | {/^c}dEBE {/F}GBeB | ^cA{/c}dA {/G}FDD :: f | {/f}(ge)(be) {/f}geef |
{/f}(ge)(be) fddf | [1 {/f}(ge)(bg) {/f}gefd | ^cA{/c}dA {/G}FDD :| [2 ebgb faeg | f^c{/c}dA {/G}FDD |]


